Yaru++/actions/16/offline.svg

<svg viewBox="0 0 22 22" xmlns="http://www.w3.org/2000/svg">
  <path d="m9.333984 16.5-.833984.833984 1.666016 1.666016-1.666016 1.666016.833984.833984 1.666016-1.666016 1.666016 1.666016.833984-.833984-1.666016-1.666016 1.666016-1.666016-.833984-.833984-1.666016 1.666016z" fill="#da4453"/>
  <path d="m4 9v3h-4v1h4v3h5v-7zm7 0v7h7v-3h4v-1h-4v-3z" fill="#808080"/>
</svg>

<svg xmlns="http://www.w3.org/2000/svg" version="1.1" viewBox="0 0 22 22">
 <defs>
  <style id="current-color-scheme" type="text/css">
   .ColorScheme-Text { color:#808080; } .ColorScheme-NegativeText { color:#da4453; }
  </style>
 </defs>
 <path class="ColorScheme-NegativeText" d="M 9.333984,16.5 8.5,17.333984 10.166016,19 8.5,20.666016 9.333984,21.5 11,19.833984 12.666016,21.5 13.5,20.666016 11.833984,19 13.5,17.333984 12.666016,16.5 11,18.166016 Z" style="fill:currentColor"/>
 <path style="fill:currentColor" class="ColorScheme-Text" d="M 4 9 L 4 12 L 0 12 L 0 13 L 4 13 L 4 16 L 9 16 L 9 9 L 4 9 z M 11 9 L 11 16 L 18 16 L 18 13 L 22 13 L 22 12 L 18 12 L 18 9 L 11 9 z"/>
</svg>
